X:1
T:Bellingham, 86.86.76.86
T:Bellingham, 86.86.76.86
T:Charles H. Morse, 1893
T:Public Domain Courtesy of the Cyber Hymnal™
C:Charles H. Morse, 1893
Z:Public Domain
Z:Courtesy of the Cyber Hymnal™
%%score ( 1 2 ) ( 3 4 )
L:1/8
Q:1/4=110
M:4/4
K:C
V:1 treble 
V:2 treble 
V:3 bass 
V:4 bass 
V:1
|: G2 | [EG]2 [EG]2 [EG]2 [EG]2 | [EG]3 [CE] [CE]2 [CE]2 | [CE]2 C2 [B,D]2 [B,^D]2 | [CE]6 [B,G]2 | %5
 [CG]2 [EG]2 [EG]2 [_EG]2 | [DG]3 [B,D] [B,D]2 [Gd]2 | [^Fd]2 [Fc]2 [FB]2 [FA]2 | G6 G2 | %9
 [B,G]2 [B,G]2 [B,A]2 [B,G]2 | [DG]4 [CG]2 [Ec]2 | [Ec]2 [Ec]2 [Ed]2 [Ec]2 | c6 [Af]2 | %13
 [GAe]2 [FAd]2 [EGc]2 [FB]2 |1,2,3,4 [FA]2 [FG]2 [EG]2 [FA]2 | [Ec]2 [EG]2 [B,EG]2 [B,DG]2 | %16
 [CG]6 :|5 [FA]2 || [Ec]2 [EG]2 d3 z c | [Ec]6 |] %20
V:2
|: G2 | x8 | x8 | x2 C2 x4 | x8 | x8 | x8 | x8 | G6 G2 | x8 | x8 | x8 | G4 F2 x2 | x8 |1,2,3,4 x8 | %15
 x8 | x6 :|5 x2 || x4 F2 F2 x | x6 |] %20
V:3
|: [G,,G,]2 | [C,G,]2 [C,C]2 [C,B,]2 [C,A,]2 | [C,G,]3 [C,G,] [C,G,]2 [E,G,]2 | %3
 G,2 [G,,E,]2 [G,,G,]2 [G,,G,]2 | [C,G,]6 [D,G,]2 | [E,G,]2 [C,G,]2 [C,A,]2 [^C,_B,]2 | %6
 [D,B,]3 [D,G,] [D,G,]2 [D,B,]2 | [D,A,]2 [D,E]2 [D,D]2 [D,C]2 | [G,B,]6 G,2 | %9
 [G,,G,]2 (D,E,) [G,,F,]2 [G,,G,]2 | [C,F,]4 [C,E,]2 [C,G,]2 | [C,C]2 (G,A,) [C,_B,]2 [C,C]2 | %12
 [F,_B,]4 [F,A,]2 [D,A,D]2 | [E,A,^C]2 [F,A,D]2 G,2 [^G,D]2 |1,2,3,4 [A,C]2 [=B,D]2 C2 [F,C]2 | %15
 [G,C]2 [G,C]2 [G,,G,]2 [G,,F,]2 | [C,E,]6 :|5 [F,C]2 || [G,C]2 [G,C]2 [G,B,]2 [G,,G,]2 x | %19
 [C,G,]6 |] %20
V:4
|: x2 | x8 | x8 | G,2 x6 | x8 | x8 | x8 | x8 | x6 G,2 | x2 G,,2 x4 | x8 | x2 C,2 x4 | x8 | %13
 x4 ^G,2 x2 |1,2,3,4 x4 C2 x2 | x8 | x6 :|5 x2 || x9 | x6 |] %20

